X: 3616
T: Bill Hoare's
R: reel
M: 4/4
K: Gmajor
D~G3 BGGA|BGBd ~g3a|b2ag ged2|gedB ABGE|
D~G3 BGGA|BGBd ~g3a|b2ag ged2|1 cAFA G2GE:|2 cAFA G2Bd||
~g2bg dgbg|gabg agef|~g2bg dgbg|abag fdd2|
~g2bg dgbg|gabg agef|g2fd edB2|1 cAFA G2Bd:|2 cAFA G4||

